X:1
T:Middleham, SM
T:Middleham, SM
T:Samuel Sebastian Wesley, 1864
T:Public Domain Courtesy of the Cyber Hymnal™
C:Samuel Sebastian Wesley, 1864
Z:Public Domain
Z:Courtesy of the Cyber Hymnal™
%%score ( 1 2 ) ( 3 4 )
L:1/8
Q:1/4=110
M:none
K:D
V:1 treble 
V:2 treble 
V:3 bass 
V:4 bass 
V:1
 [DA]2 | [DF]2 [DB]2 [DA]2 [Gc]2 | [Fd]6 [Dd]2 | [Ec]2 [Fd]2 [Ec]2 [EB]2 | [CA]6 [DF]2 | %5
 [DG]2 [DA]2 [DB]2 [DA]2 | G2 [DF]2 [CE]2 [CA]2 | [Dd]2 [DG]2 [DF]2 [CE]2 | D6 |] %9
V:2
 x2 | x8 | x8 | x8 | x8 | x8 | (DC) x6 | x8 | D6 |] %9
V:3
 [D,F,]2 | [D,A,]2 [G,,G,]2 [A,,F,]2 (E,A,) | [D,A,]6 [F,A,]2 | A,2 [D,A,]2 [E,A,]2 (A,^G,) | %4
 [A,,A,]6 [D,A,]2 | [B,,G,]2 [D,F,]2 G,2 [F,A,]2 | [E,A,]2 [D,A,]2 [A,,A,]2 A,2 | %7
 [F,A,]2 [G,B,]2 A,2 (A,G,) | [D,F,]6 |] %9
V:4
 x2 | x6 A,,2 | x8 | A,2 x2 E,2 x2 | x8 | x4 G,2 x2 | x6 A,2 | x4 A,2 A,,2 | x6 |] %9

